X:20
T:Boys of the Lough
C:Trad.
D:"Cooley", track 4a
M:4/4
R:reel
K:D
dB|:A~F3 ADFA|dfed B3d|A~F3 D~F3|d~F3 EFGB|
A~F3 ADFA|defd [G3B3]d|A~F3 dFAF|(3GFGEG FDD2|
A~F3 D~F3|d~B3 GBdB|AAFA defa|ggfg edBd|
dDFD dDFA|defd [G3B3]d|A~F3 DFAF|(3GFGEG FDD2|
faag ffef|dcBA FA(3Bcd|A~F3 D~F3|d~F3 EF(3GFE|
{A}a3f gefe|dcBA FABd|A~F3 dFAF|~G2EG FD3|
fa2g ffef|dcBA FA(3Bcd|A~F3 ABde|fdaf ~e2fg|
af ge fd ec|dcBA FABd|A~F3 DFAF|~E3F D3:|
